icon-themes/breeze_svg/cmd/32/linewidth.svg

<svg viewBox="0 0 32 32" xmlns="http://www.w3.org/2000/svg"><path d="m15 5v4h-2l3 5 3-5h-2v-4zm-11 10v2h24v-2zm12 3-3 5h2v4h2v-4h2z" fill="#4d4d4d"/></svg>

<svg xmlns="http://www.w3.org/2000/svg" viewBox="0 0 32 32">
 <path 
     style="fill:#4d4d4d" 
     d="M 15 5 L 15 9 L 13 9 L 16 14 L 19 9 L 17 9 L 17 5 L 15 5 z M 4 15 L 4 17 L 28 17 L 28 15 L 4 15 z M 16 18 L 13 23 L 15 23 L 15 27 L 17 27 L 17 23 L 19 23 L 16 18 z "
     />
</svg>
